frontend/public/assets/material-icons/folder-log.svg

<svg xmlns="http://www.w3.org/2000/svg" viewBox="0 0 32 32">
  <path d="M13.84376,7.53645l-1.28749-1.0729A2,2,0,0,0,11.27591,6H4A2,2,0,0,0,2,8V24a2,2,0,0,0,2,2H28a2,2,0,0,0,2-2V10a2,2,0,0,0-2-2H15.12412A2,2,0,0,1,13.84376,7.53645Z" style="fill: #afb42b"/>
  <rect x="20" y="14" width="8" height="2" style="fill: #afb42b"/>
  <rect x="20" y="18" width="8" height="2" style="fill: #afb42b"/>
  <rect x="20" y="22" width="6" height="2" style="fill: #afb42b"/>
  <path d="M30.337,14H17.663A1.66293,1.66293,0,0,0,16,15.663V26.337A1.663,1.663,0,0,0,17.663,28H30.337A1.663,1.663,0,0,0,32,26.337V15.663A1.66293,1.66293,0,0,0,30.337,14ZM26,26H20V24h6Zm2-4H20V20h8Zm0-4H20V16h8Z" style="fill: #f0f4c3;fill-rule: evenodd"/>
</svg>

<svg xmlns="http://www.w3.org/2000/svg" viewBox="0 0 32 32"><path fill="#afb42b" d="m13.844 7.536-1.288-1.072A2 2 0 0 0 11.276 6H4a2 2 0 0 0-2 2v16a2 2 0 0 0 2 2h24a2 2 0 0 0 2-2V10a2 2 0 0 0-2-2H15.124a2 2 0 0 1-1.28-.464"/><path fill="#afb42b" d="M20 14h8v2h-8zm0 4h8v2h-8zm0 4h6v2h-6z"/><path fill="#f0f4c3" d="M30.337 14H17.663A1.663 1.663 0 0 0 16 15.663v10.674A1.663 1.663 0 0 0 17.663 28h12.674A1.663 1.663 0 0 0 32 26.337V15.663A1.663 1.663 0 0 0 30.337 14M26 26h-6v-2h6Zm2-4h-8v-2h8Zm0-4h-8v-2h8Z"/></svg>
